!!!COM: Gabriel Faure/
!!!CNT: Francais
!!!TXO: Francais
!!!OTL: En Prie\re
!!!LYR: Ste/phan Borde\se
!!!ENC: Jacob Pegg
!!!YOR: Album of Twenty Songs (Vingt Me/lodies,) Volume II
!!!YOR: Edward B. Marks Music Corporation, RCA Building, Radio
!!!YOR: City, New York 20, N.Y.
!!!ODT: 1890/
!!NB: Vocal melody and text only encoded.
!!NB: First instance of melodic material only encoded.
**kern	**silbe
*clef G2	*
*k[b-]	*
*M4/4	*
*MM[moderato]	*
!!created: 2/27/04 13:57
!!proofed and posted: 2/27/04 17:02
!!edit time: 49 min.
=1	=1
1r	.
=2	=2
4r	.
{8cc	{Si
8cc	la
4dd	voix
8cc	d'un
8b-	en-
=3	=3
4cc	-fant
8cc	peut
8cc	mon-
4ff	-ter
8ee	jus-
8dd	-qu'a\
=4	=4
2.cc}	vous,}
{8a	{O^
8b	mon
=5	=5
2cc	Pe\-
[2cc	-re,
=6	=6
8cc]}	|}
8r	.
{8cc	{E-
8cc	-cou-
4dd	-tez
8cc	de
8b-	Je/-
=7	=7
4cc	-sus,
8cc	de-
8cc	-vant
4ff	Vous
8ee	a\
8dd	ge-
=8	=8
2.cc}	-noux,}
{8a	{La
8b	pri-
=9	=9
2cc	-e\-
2cc}	-re!}
=10	=10
8r	.
{8cc	{Si
8dd	Vous
8ee	m'a-
4.ee	-vez
8cc	choi-
=11	=11
4.bn	-si
8bn	pour
8dd	en-
8dd	-sei-
8cc	-gner
8b-	vos
=12	=12
2.a}	lois}
{8a	{Sur
8bn	la
=13	=13
2cc	ter-
2bn}	-re,}
=14	=14
{4g	{Je
4b-	sau-
4b-	-rai
8a	Vous
8g	ser-
=15	=15
4.b-	-vir.
8b-	au-
8dd	-gus-
8dd	-te
8cc	Roi
8b-	des
=16	=16
2.ff}	rois,}
{8ee	{O^
8dd	Lu-
=17	=17
2cc	-mie\-
[2cc	-re!
=18	=18
8cc]}	|}
8r	.
{8cc	{Sur
8cc	mes
4dd-	le\-
8cc	-vres,
8b-	Sei-
=19	=19
4.cc	-gneur,
8cc	met-
8ff	-tez
8ff	la
8ee-	ve/-
8dd-	-ri-
=20	=20
2.cc}	-te/}
{8b-	{Sa-
8a-	-lu-
=21	=21
2ee-	-tai-
2ee-}	-re,}
=22	=22
{4ee-	{Pour
8ee-	que
8ee-	ce-
4.ff	-lui
8cc	qui
=23	=23
4.cc}	doute,}
{8cc	{a-
8cc	-vec
8a-	hu-
8b-	-mi-
8cc	-li-
=24	=24
2.a-}	-te/}
{8b-	{Vous
8b-	re/-
=25	=25
2cc	-ve\-
[2cc	-re!
=26	=26
4cc]}	|}
8r	.
{8cc	{Ne
8dd	m'a-
8dd	-ban-
8cc	-don-
8b-	-nez
=27	=27
4cc	-pas,
8cc	don-
8cc	-nez~
4ff	~moi
8ee	la
8dd	dou-
=28	=28
2.cc	-ceur
8a	Ne/-
8b	-ces-
=29	=29
2cc	-sai-
2cc}	-re,}
=30	=30
{4cc	{Pour
8dd	a-
8ee	-pai-
4.ee	-ser
8cc	les
=31	=31
4bn	maux,
8bn	sou-
8bn	-la-
4dd	-ger
8cc	la
8b-	dou-
=32	=32
2.a}	-leur,}
{8g	{La
8f	mi-
=33	=33
(2a	-se/-
2g)	|
=34	=34
2f}	-re!}
4r	.
{4cc	{Re/-
=35	=35
4ee-	-ve\-
4ff	-lez~
4dd	~Vous
4cc	a\
=36	=36
2.cc}	moi.}
{4cc	{Sei-
=37	=37
4ee-	-gneur
4ff	en
4dd	qui
4cc	je
=38	=38
2.cc}	crois}
{8b-	{Et
8a	j'es-
=39	=39
1g	-pe\-
=40	=40
2a}	-re:}
4r	.
{4cc	{Pour
=41	=41
4ee-	Vous
4dd	je
4b-	veux
4g	souf-
=42	=42
2a	-frir
4.cc	et
8cc	mou-
=43	=43
(4ee-	-rir
4dd)	|
4b-	sur
4g	la
=44	=44
2a}	croix,}
{4.f	{Au
8f	cal-
=45	=45
(2.f	-vai-
4g)	|
=46	=46
[1a	-re!
=47	=47
2a_	|
4a]}	|}
4r	.
*-	*-
